X: 7033
T: Chilkat
R: polka
M: 2/4
K: Aminor
|:Ae ed/c/|Bd GB|EA cc|B/A/G A2|
Ae ed/c/|Bd GB|dd ed/c/|1 BB A2:|2 BB A>G||
|:E/G/A E/G/A|cc BE|dd ed/c/|BB A>G|
E/G/A E/G/A|cc B/A/G|EA cc|1 B/A/G A>G:|2 B/A/G A2||

